frontend/src/assets/icon/pause.svg

<svg width="24" height="24" viewBox="0 0 24 24" fill="none" xmlns="http://www.w3.org/2000/svg">
<path d="M17.11 20.53C16.6591 20.53 16.2267 20.3509 15.9079 20.0321C15.5891 19.7133 15.41 19.2809 15.41 18.83V5.2C15.41 4.74913 15.5891 4.31673 15.9079 3.99792C16.2267 3.67911 16.6591 3.5 17.11 3.5C17.5609 3.5 17.9933 3.67911 18.3121 3.99792C18.6309 4.31673 18.81 4.74913 18.81 5.2V18.83C18.81 19.0532 18.766 19.2743 18.6806 19.4806C18.5952 19.6868 18.4699 19.8742 18.3121 20.0321C18.1542 20.1899 17.9668 20.3152 17.7606 20.4006C17.5543 20.486 17.3332 20.53 17.11 20.53ZM6.89 20.53C6.43913 20.53 6.00673 20.3509 5.68792 20.0321C5.36911 19.7133 5.19 19.2809 5.19 18.83V5.2C5.19 4.97675 5.23397 4.75569 5.3194 4.54944C5.40484 4.34318 5.53006 4.15578 5.68792 3.99792C5.84578 3.84006 6.03318 3.71484 6.23944 3.6294C6.44569 3.54397 6.66675 3.5 6.89 3.5C7.11325 3.5 7.33431 3.54397 7.54056 3.6294C7.74681 3.71484 7.93422 3.84006 8.09208 3.99792C8.24994 4.15578 8.37516 4.34318 8.46059 4.54944C8.54603 4.75569 8.59 4.97675 8.59 5.2V18.83C8.59 19.0532 8.54603 19.2743 8.46059 19.4806C8.37516 19.6868 8.24994 19.8742 8.09208 20.0321C7.93422 20.1899 7.74681 20.3152 7.54056 20.4006C7.33431 20.486 7.11325 20.53 6.89 20.53Z" fill="#222222"/>
</svg>

<?xml version="1.0" encoding="utf-8"?>
<!-- Generator: Adobe Illustrator 25.1.0, SVG Export Plug-In . SVG Version: 6.00 Build 0)  -->
<svg version="1.1" id="레이어_1" xmlns="http://www.w3.org/2000/svg" xmlns:xlink="http://www.w3.org/1999/xlink" x="0px"
	 y="0px" viewBox="0 0 24 24" style="enable-background:new 0 0 24 24;" xml:space="preserve">
<path d="M17.1,20.5c-0.5,0-0.9-0.2-1.2-0.5s-0.5-0.8-0.5-1.2V5.2c0-0.5,0.2-0.9,0.5-1.2s0.8-0.5,1.2-0.5c0.5,0,0.9,0.2,1.2,0.5
	s0.5,0.8,0.5,1.2v13.6c0,0.2,0,0.4-0.1,0.7c-0.1,0.2-0.2,0.4-0.4,0.6c-0.2,0.2-0.3,0.3-0.6,0.4C17.6,20.5,17.3,20.5,17.1,20.5z
	 M6.9,20.5c-0.5,0-0.9-0.2-1.2-0.5s-0.5-0.8-0.5-1.2V5.2c0-0.2,0-0.4,0.1-0.7C5.4,4.3,5.5,4.2,5.7,4C5.8,3.8,6,3.7,6.2,3.6
	c0.2-0.1,0.4-0.1,0.7-0.1s0.4,0,0.7,0.1C7.7,3.7,7.9,3.8,8.1,4c0.2,0.2,0.3,0.3,0.4,0.6C8.5,4.8,8.6,5,8.6,5.2v13.6
	c0,0.2,0,0.4-0.1,0.7c-0.1,0.2-0.2,0.4-0.4,0.6c-0.2,0.2-0.3,0.3-0.6,0.4C7.3,20.5,7.1,20.5,6.9,20.5z"/>
</svg>
